X: 07059
T: IRV'S HORNPIPE
C: Bob McQuillen 21 May 89
B: Bob's Note Book 7 #59
%R: hornpipe, reel
Z: 2020 John Chambers <jc:trillian.mit.edu>
M: C
L: 1/8
K: D
fe \
| dfed BdAG | F2D2 D2AG | FDFA dfdA | BdAF E2fe |
| dfed BdAG | F2DF ABAG | FDFA dfeg | f2d2 d2  :|
|: dc \
| B2F2 BdcB | ABAF A2FA | BAFA BdcB | A2F2 F2FA |
| BAFA BABc | d2dB AGFA | dfdB AFEG | F2D2 D2  :|
%%begintext align
%% This one's for Irv
%% Thomae (pr. T\=o-may) of Norwich, VT. - he's gotta
%% be the most enthusiastic dancer in that state -
%% He'll go anywhere for a dance! I've seen him do it!
%% I sure hope you like dancing to this tune, Irv.
%%endtext

%%sep 1 1 500

%%sep 1 1 500

